X:1
T: The Top of Balvenie
C:William Marshall
R:Strathspey
Q: 128
K:G
M:4/4
L:1/16
|:g2|GG3 B2cd G2c2 B2cd|D2A2 F2A2 c2e2 d2B2|GG3 B2cd G2c2 B2cd|e2g2 fgaf g2G2 B2g2|
GG3 B2cd G2c2 B2cd|D2A2 F2A2 c2e2 d2B2|GG3 B2cd G2c2 B2cd|e2g2 fgaf g2G2 B2g2|
d2g2 B2g2 d2g2 b2g2|d2g2 B2g2 a2A2 c2e2|d2g2 B2g2 d2g2 b2g2|((3e2f2g2) ((3f2g2a2) g2G2 B2g2|
d2g2 B2g2 d2g2 b2g2|d2g2 B2g2 a2A2 c2e2|GG3 B2cd G2c2 B2cd|e2g2 fgaf g2G2 B2:|
